svg/food/donut_line.svg

<svg xmlns="http://www.w3.org/2000/svg" width="24" height="24" viewBox="0 0 24 24"><g fill="none" fill-rule="evenodd"><path d="M24,0 L24,24 L0,24 L0,0 L24,0 Z M12.5935,23.2578 L12.5819,23.2595 L12.5109,23.295 L12.4919,23.2987 L12.4767,23.295 L12.4057,23.2595 C12.3958,23.2564 12.387,23.259 12.3821,23.2649 L12.378,23.2758 L12.3609,23.7031 L12.3659,23.7235 L12.3769,23.7357 L12.4805,23.8097 L12.4953,23.8136 L12.5071,23.8097 L12.6107,23.7357 L12.6233,23.7197 L12.6267,23.7031 L12.6096,23.2758 C12.6076,23.2657 12.601,23.2593 12.5935,23.2578 Z M12.8584,23.1453 L12.8445,23.1473 L12.6598,23.2397 L12.6499,23.2499 L12.6472,23.2611 L12.6651,23.6906 L12.6699,23.7034 L12.6784,23.7105 L12.8793,23.8032 C12.8914,23.8069 12.9022,23.803 12.9078,23.7952 L12.9118,23.7812 L12.8777,23.1665 C12.8753,23.1546 12.8674,23.147 12.8584,23.1453 Z M12.143,23.1473 C12.1332,23.1424 12.1222,23.1453 12.1156,23.1526 L12.1099,23.1665 L12.0758,23.7812 C12.0751,23.7927 12.0828,23.8019 12.0926,23.8046 L12.1083,23.8032 L12.3092,23.7105 L12.3186,23.7024 L12.3225,23.6906 L12.3404,23.2611 L12.3372,23.2485 L12.3278,23.2397 L12.143,23.1473 Z"/><path fill="#09244B" d="M12,2 C17.5228,2 22,6.47715 22,12 C22,17.5228 17.5228,22 12,22 C6.47715,22 2,17.5228 2,12 C2,6.47715 6.47715,2 12,2 Z M12,4 C7.58172,4 4,7.58172 4,12 C4,16.4183 7.58172,20 12,20 C16.4183,20 20,16.4183 20,12 C20,7.58172 16.4183,4 12,4 Z M11.1838,16.5513 C11.7077,16.3767 12.274,16.6598 12.4487,17.1838 C12.6108286,17.6702786 12.3783077,18.1933163 11.9247195,18.4054286 L11.8162,18.4487 L10.3162,18.9487 C9.79228,19.1233 9.22596,18.8402 9.05132,18.3162 C8.889145,17.8297214 9.12171434,17.3066837 9.57526164,17.0945714 L9.68377,17.0513 L11.1838,16.5513 Z M16.2071,15.7929 L16.7071,16.2929 C17.0976,16.6834 17.0976,17.3166 16.7071,17.7071 C16.3166,18.0976 15.6834,18.0976 15.2929,17.7071 L14.7929,17.2071 C14.4024,16.8166 14.4024,16.1834 14.7929,15.7929 C15.1834,15.4024 15.8166,15.4024 16.2071,15.7929 Z M12,8 C14.2091,8 16,9.79086 16,12 C16,14.2091 14.2091,16 12,16 C9.79086,16 8,14.2091 8,12 C8,9.79086 9.79086,8 12,8 Z M6.89443,12.5528 L7.39443,13.5528 C7.64142,14.0468 7.44119,14.6474 6.94721,14.8944 C6.45324,15.1414 5.85256,14.9412 5.60557,14.4472 L5.10557,13.4472 C4.85858,12.9532 5.05881,12.3526 5.55279,12.1056 C6.04676,11.8586 6.64744,12.0588 6.89443,12.5528 Z M16.7929,12.7929 C17.1533615,12.4324385 17.7206207,12.4047107 18.1128973,12.7097166 L18.2071,12.7929 L18.7071,13.2929 C19.0976,13.6834 19.0976,14.3166 18.7071,14.7071 C18.3466385,15.0675615 17.7793793,15.0952893 17.3871027,14.7902834 L17.2929,14.7071 L16.7929,14.2071 C16.4024,13.8166 16.4024,13.1834 16.7929,12.7929 Z M12,10 C10.8954,10 10,10.8954 10,12 C10,13.1046 10.8954,14 12,14 C13.1046,14 14,13.1046 14,12 C14,10.8954 13.1046,10 12,10 Z M6.70711,8.29289 L7.20711,8.79289 C7.59763,9.18342 7.59763,9.81658 7.20711,10.2071 C6.81658,10.5976 6.18342,10.5976 5.79289,10.2071 L5.29289,9.70711 C4.90237,9.31658 4.90237,8.68342 5.29289,8.29289 C5.68342,7.90237 6.31658,7.90237 6.70711,8.29289 Z M16.7071,6.29289 C17.0675615,6.65337923 17.0952893,7.22060645 16.7902834,7.61290152 L16.7071,7.70711 L16.2071,8.20711 C15.8166,8.59763 15.1834,8.59763 14.7929,8.20711 C14.4324385,7.84662077 14.4047107,7.27939355 14.7097166,6.88709848 L14.7929,6.79289 L15.2929,6.29289 C15.6834,5.90237 16.3166,5.90237 16.7071,6.29289 Z M10.0513,5.18377 C10.2135214,4.69725429 10.713398,4.4183499 11.2034449,4.5208232 L11.3162,4.55132 L12.8162,5.05132 C13.3402,5.22596 13.6233,5.79228 13.4487,6.31623 C13.2865714,6.80274571 12.7866153,7.0816501 12.2965565,6.9791768 L12.1838,6.94868 L10.6838,6.44868 C10.1598,6.27404 9.87667,5.70772 10.0513,5.18377 Z"/></g></svg>

<svg xmlns="http://www.w3.org/2000/svg" width="24" height="24"><g fill="none" fill-rule="evenodd"><path d="M24 0v24H0V0zM12.594 23.258l-.012.002-.071.035-.02.004-.014-.004-.071-.036c-.01-.003-.019 0-.024.006l-.004.01-.017.428.005.02.01.013.104.074.015.004.012-.004.104-.074.012-.016.004-.017-.017-.427c-.002-.01-.009-.017-.016-.018m.264-.113-.014.002-.184.093-.01.01-.003.011.018.43.005.012.008.008.201.092c.012.004.023 0 .029-.008l.004-.014-.034-.614c-.003-.012-.01-.02-.02-.022m-.715.002a.023.023 0 0 0-.027.006l-.006.014-.034.614c0 .012.007.02.017.024l.015-.002.201-.093.01-.008.003-.011.018-.43-.003-.012-.01-.01z"/><path fill="#09244B" d="M12 2c5.523 0 10 4.477 10 10s-4.477 10-10 10S2 17.523 2 12 6.477 2 12 2m0 2a8 8 0 1 0 0 16 8 8 0 0 0 0-16m-.816 12.551a1 1 0 0 1 .74 1.854l-.108.044-1.5.5a1 1 0 0 1-.74-1.854l.108-.044zm5.023-.758.5.5a1 1 0 0 1-1.414 1.414l-.5-.5a1 1 0 0 1 1.414-1.414M12 8a4 4 0 1 1 0 8 4 4 0 0 1 0-8m-5.106 4.553.5 1a1 1 0 1 1-1.788.894l-.5-1a1 1 0 1 1 1.788-.894m9.899.24a1 1 0 0 1 1.32-.083l.094.083.5.5a1 1 0 0 1-1.32 1.497l-.094-.083-.5-.5a1 1 0 0 1 0-1.414M12 10a2 2 0 1 0 0 4 2 2 0 0 0 0-4M6.707 8.293l.5.5a1 1 0 0 1-1.414 1.414l-.5-.5a1 1 0 0 1 1.414-1.414m10-2a1 1 0 0 1 .083 1.32l-.083.094-.5.5a1 1 0 0 1-1.497-1.32l.083-.094.5-.5a1 1 0 0 1 1.414 0m-6.656-1.11a1 1 0 0 1 1.152-.662l.113.03 1.5.5a1 1 0 0 1-.52 1.928l-.112-.03-1.5-.5a1 1 0 0 1-.633-1.265"/></g></svg>
